icons/gallery-line.svg

<svg xmlns="http://www.w3.org/2000/svg" width="24" height="24" fill="none"><g clip-path="url(#a)"><g><path fill="#121212" d="M20 13C18.322 13 16.751 13.46 15.407 14.259C16.6038 15.6576 17.5326 17.2648 18.147 19H20V13ZM16.004 19C14.044 14.302 9.408 11 4 11V19H16.004ZM4 9C7.83 9 11.323 10.435 13.974 12.796C15.7639 11.621 17.8589 10.9966 20 11V3H21.008C21.556 3 22 3.445 22 3.993V20.007C21.9982 20.2696 21.8931 20.521 21.7075 20.7068C21.5219 20.8926 21.2706 20.9979 21.008 21H2.992C2.72881 20.9997 2.4765 20.895 2.29049 20.7088C2.10448 20.5226 2 20.2702 2 20.007V3.993C2.00183 3.73038 2.1069 3.47902 2.29251 3.29322C2.47813 3.10742 2.72938 3.00209 2.992 3H6V1H8V5H4V9ZM18 1V5H10V3H16V1H18ZM16.5 10C16.1022 10 15.7206 9.84196 15.4393 9.56066C15.158 9.27936 15 8.89782 15 8.5C15 8.10218 15.158 7.72064 15.4393 7.43934C15.7206 7.15804 16.1022 7 16.5 7C16.8978 7 17.2794 7.15804 17.5607 7.43934C17.842 7.72064 18 8.10218 18 8.5C18 8.89782 17.842 9.27936 17.5607 9.56066C17.2794 9.84196 16.8978 10 16.5 10Z"/></g></g><defs><clipPath id="a"><rect width="24" height="24" fill="white"/></clipPath></defs></svg>

<svg width="24" height="24" fill="none" xmlns="http://www.w3.org/2000/svg"><g clip-path="url(#a)"><path d="M20 13c-1.678 0-3.249.46-4.593 1.259A14.985 14.985 0 0 1 18.147 19H20v-6Zm-3.996 6C14.044 14.302 9.408 11 4 11v8h12.004ZM4 9c3.83 0 7.323 1.435 9.974 3.796A10.949 10.949 0 0 1 20 11V3h1.008c.548 0 .992.445.992.993v16.014a1 1 0 0 1-.992.993H2.992A.993.993 0 0 1 2 20.007V3.993A1 1 0 0 1 2.992 3H6V1h2v4H4v4Zm14-8v4h-8V3h6V1h2Zm-1.5 9a1.5 1.5 0 1 1 0-3 1.5 1.5 0 0 1 0 3Z" /></g><defs><clipPath id="a"><path fill="#fff" d="M0 0h24v24H0z"/></clipPath></defs></svg>
